.local/share/icons/Gruvbox-Plus-Dark/actions/24/tools.svg

<svg width="24" height="24" version="1.1" xmlns="http://www.w3.org/2000/svg">
  <defs>
    <style id="current-color-scheme" type="text/css">.ColorScheme-Text { color:#ebdbb2; } .ColorScheme-Highlight { color:#458588; }</style>
  </defs>
  <path class="ColorScheme-Text" d="m9 5a1 1 0 0 0-1 1v2h-1c-1.108 0-2 0.892-2 2v1h14v-1c0-1.108-0.892-2-2-2h-1v-2a1 1 0 0 0-1-1zm1 2h4v1h-4zm-5 5v5c0 1.108 0.892 2 2 2h10c1.108 0 2-0.892 2-2v-5h-5v4h-4v-4zm6 1v2h2v-2z" fill="currentColor"/>
</svg>

<svg xmlns="http://www.w3.org/2000/svg" width="24" height="24" version="1.1">
 <defs>
  <style id="current-color-scheme" type="text/css">
   .ColorScheme-Text { color:#555555; } .ColorScheme-Highlight { color:#4285f4; } .ColorScheme-NeutralText { color:#ff9800; } .ColorScheme-PositiveText { color:#4caf50; } .ColorScheme-NegativeText { color:#f44336; }
  </style>
 </defs>
 <path style="fill:currentColor" class="ColorScheme-Text" d="M 9,5 A 1.0001,1.0001 0 0 0 8,6 V 8 H 7 C 5.892,8 5,8.892 5,10 v 1 H 19 V 10 C 19,8.892 18.108,8 17,8 H 16 V 6 A 1.0001,1.0001 0 0 0 15,5 Z m 1,2 h 4 v 1 h -4 z m -5,5 v 5 c 0,1.108 0.892,2 2,2 h 10 c 1.108,0 2,-0.892 2,-2 v -5 h -5 v 4 h -4 v -4 z m 6,1 v 2 h 2 v -2 z"/>
</svg>
